icon/fa/chart-simple.svg

<svg xmlns="http://www.w3.org/2000/svg" viewBox="0 0 448 512"><!--! Font Awesome Free 6.1.2 by @fontawesome - https://fontawesome.com License - https://fontawesome.com/license/free (Icons: CC BY 4.0, Fonts: SIL OFL 1.1, Code: MIT License) Copyright 2022 Fonticons, Inc.--><path d="M160 80c0-26.51 21.5-48 48-48h32c26.5 0 48 21.49 48 48v352c0 26.5-21.5 48-48 48h-32c-26.5 0-48-21.5-48-48V80zM0 272c0-26.5 21.49-48 48-48h32c26.5 0 48 21.5 48 48v160c0 26.5-21.5 48-48 48H48c-26.51 0-48-21.5-48-48V272zM400 96c26.5 0 48 21.5 48 48v288c0 26.5-21.5 48-48 48h-32c-26.5 0-48-21.5-48-48V144c0-26.5 21.5-48 48-48h32z"/></svg>

<svg xmlns="http://www.w3.org/2000/svg" viewBox="0 0 448 512" height="1em" width="1em">
<!--! Font Awesome Free 6.1.2 by @fontawesome - https://fontawesome.com License - https://fontawesome.com/license/free (Icons: CC BY 4.0, Fonts: SIL OFL 1.1, Code: MIT License) Copyright 2022 Fonticons, Inc.-->
  <path d="M160 80C160 53.49 181.5 32 208 32H240C266.5 32 288 53.49 288 80V432C288 458.5 266.5 480 240 480H208C181.5 480 160 458.5 160 432V80zM0 272C0 245.5 21.49 224 48 224H80C106.5 224 128 245.5 128 272V432C128 458.5 106.5 480 80 480H48C21.49 480 0 458.5 0 432V272zM400 96C426.5 96 448 117.5 448 144V432C448 458.5 426.5 480 400 480H368C341.5 480 320 458.5 320 432V144C320 117.5 341.5 96 368 96H400z"/>
</svg>
